static/robot.svg

<?xml version="1.0" encoding="iso-8859-1"?>
<!-- Uploaded to: SVG Repo, www.svgrepo.com, Generator: SVG Repo Mixer Tools -->
<svg fill="currentColor" height="800px" width="800px" version="1.1" id="Layer_1" xmlns="http://www.w3.org/2000/svg" xmlns:xlink="http://www.w3.org/1999/xlink" 
	 viewBox="0 0 512 512" xml:space="preserve">
<g>
	<g>
		<path d="M351.37,343.845v-39.787h58.66V170.014h-58.66h-33.391h-15.952v-17.082h79.471V0H130.504v152.932h79.47v17.082h-15.951
			h-33.391h-58.661v134.045h58.661v39.787c-37.215,9.177-64.902,42.826-64.902,82.833c0,47.047,38.275,85.321,85.32,85.321h149.898
			c47.046,0,85.32-38.275,85.32-85.321C416.27,386.67,388.585,353.022,351.37,343.845z M351.37,203.405h25.268v67.262H351.37
			V203.405z M163.896,119.541v-86.15h184.211v86.15H163.896z M268.634,152.932v17.082h-25.268v-17.082H268.634z M194.024,304.059
			V203.405h123.954v100.654v37.299H194.024V304.059z M135.363,270.668v-67.262h25.269v67.262H135.363z M330.95,478.609H181.052
			c-28.634,0-51.929-23.296-51.929-51.93s23.296-51.929,51.929-51.929H330.95c28.634,0,51.929,23.296,51.929,51.929
			C382.879,455.313,359.584,478.609,330.95,478.609z"/>
	</g>
</g>
<g>
	<g>
		<path d="M209.81,226.192v92.383h92.383v-92.383H209.81z M268.801,285.183h-25.6v-25.6h25.6V285.183z"/>
	</g>
</g>
<g>
	<g>
		<path d="M203.132,384.122c-23.465,0-42.555,19.09-42.555,42.555c0,23.465,19.09,42.555,42.555,42.555
			c23.465,0,42.555-19.09,42.555-42.555C245.687,403.212,226.597,384.122,203.132,384.122z M203.132,435.842
			c-5.053,0-9.164-4.11-9.164-9.164s4.11-9.164,9.164-9.164s9.164,4.11,9.164,9.164S208.185,435.842,203.132,435.842z"/>
	</g>
</g>
<g>
	<g>
		<path d="M308.871,384.122c-23.465,0-42.555,19.09-42.555,42.555c0,23.465,19.09,42.555,42.555,42.555s42.555-19.09,42.555-42.555
			C351.426,403.212,332.336,384.122,308.871,384.122z M308.871,435.842c-5.053,0-9.164-4.11-9.164-9.164s4.11-9.164,9.164-9.164
			s9.164,4.11,9.164,9.164S313.924,435.842,308.871,435.842z"/>
	</g>
</g>
<g>
	<g>
		<circle cx="217.045" cy="76.466" r="16.696"/>
	</g>
</g>
<g>
	<g>
		<circle cx="294.958" cy="76.466" r="16.696"/>
	</g>
</g>
</svg>

<svg xmlns="http://www.w3.org/2000/svg" xml:space="preserve" width="800" height="800" fill="currentColor" viewBox="0 0 512 512"><path d="M351.37 343.85v-39.8h58.66V170.02h-108v-17.08h79.47V0h-251v152.93h79.47v17.08h-108v134.05h58.66v39.79c-37.21 9.17-64.9 42.82-64.9 82.83 0 47.05 38.28 85.32 85.32 85.32h149.9c47.04 0 85.32-38.27 85.32-85.32 0-40.01-27.68-73.66-64.9-82.83m0-140.45h25.27v67.27h-25.27zM163.9 119.55V33.4h184.2v86.15zm104.73 33.4V170h-25.26v-17.08zm-74.6 151.12V203.4h123.95v137.95H194.02zm-58.67-33.4v-67.25h25.27v67.26zm195.59 207.95h-149.9c-28.63 0-51.93-23.3-51.93-51.93s23.3-51.93 51.93-51.93h149.9a52 52 0 0 1 51.93 51.93 52 52 0 0 1-51.93 51.93"/><path d="M209.81 226.2v92.38h92.38v-92.39zm59 58.98h-25.6v-25.6h25.6zM203.13 384.12a42.6 42.6 0 0 0-42.55 42.56 42.6 42.6 0 0 0 42.55 42.55 42.6 42.6 0 0 0 42.56-42.55 42.6 42.6 0 0 0-42.56-42.56m0 51.72a9.17 9.17 0 0 1 0-18.33 9.17 9.17 0 0 1 0 18.33M308.87 384.12a42.6 42.6 0 0 0-42.55 42.56c0 23.46 19.09 42.55 42.55 42.55s42.56-19.09 42.56-42.55a42.6 42.6 0 0 0-42.56-42.56m0 51.72a9.17 9.17 0 0 1 0-18.33 9.17 9.17 0 0 1 0 18.33"/><circle cx="217.04" cy="76.47" r="16.7"/><circle cx="294.96" cy="76.47" r="16.7"/></svg>
